X:1
T:Partita IV Gigue
T:BWV 828
T:J. S. Bach
%%score { ( 1 3 5 ) | ( 2 4 ) }
L:1/8
M:9/16
K:D
V:1 treble nm="Harp"
V:3 treble 
V:5 treble 
V:2 bass 
V:4 bass 
V:1
 D3/2- D/F/A/d/A/F/ | D/F/A/ =c3/2 z3/2 | B/A/B<E- E/F/G/ | A/G/A<D- D/E/F/ | %4
 G/E/C/ A,/C/E/ G/F/E/ | F/D/E/ F/G/A/ B/c/d/ | c/B/A/ d/c/B/ c/B/A/ | e3/2- e/c/d/ e/f/g/ | %8
 a3/2- a/B/c/ d/e/f/ | g3/2- g/A/B/ c/d/e/ | f3/2 ^G3/2 b3/2- | b/c/e/ a3/2 ^d3/2 | %12
 e/E/F/ G/A/B/ c/d/e/ | d3/2 =c'3/2 f3/2 | g/G/A/ B/c/d/ e/f/g/ | f/e/d/ a3/2[eg]3/2- | %16
 [eg]3/2 f3/2 z3/2 | f3/2 g z/ z3/2 | g3/2 f z/ z3/2 | d3/2 c3/2 e3/2- | e3/2 d3/2 ^g3/2 | %21
 a3/2 c3/2 ^d3/2 | ^d3/2 e3/2 ^a3/2 | b3/2 ^d3/2 ^e3/2 | f3/2 a3/2 a3/2 | a3/2 z3/2 z3/2 | %26
 g/f/e/ g3/2 g3/2 | g3/2 z3/2 z3/2 | f/d/B/ B/^A/B/ c/d/e/ | d/B/G/ G/F/G/ A/B/=c/ | %30
 B/G/e/- e/^d/e/ f/g/a/ | g3- g3/2- | g/ z z3/2 z3/2 | A,/D/F/ A/d/f/ d/A/F/ | %34
 D/[I:staff +1]B,/[I:staff -1]D/ ^G/B/d/ ^g/b/g/ | a/e/c/ A/E/C/[I:staff +1] A,/[I:staff -1]C/E/ | %36
 A/c/e/ g3/2 z3/2 | f/e/f/ B3/2- B/c/d/ | e/d/e/ A3/2- A/B/c/ | d/B/^G/ E/G/B/ d/c/B/ | %40
 c3/2- [Ac]3/2 z3/2 | c3/2- [Ac]3/2 z3/2 | =c3/2- [Ac]3/2 z3/2 | =c3/2- [Ac]3/2 z3/2 | %44
 z/ F/^G/ A/B/=c/- c/B/A/ | ^G/A/B/ E/G/B/- [Be-]3/2 | e/d/c/ B/c/A/ E/A/^G/ | %47
[I:staff +1] A,,/C,/E,/ A,/C/[I:staff -1]E/ A3/2 | D3/2- D/F/A/d/A/F/ | D/F/A/ =c3/2 z3/2 | %50
 B/A/B<E- E/F/G/ | A/G/A<D- D/E/F/ | G/E/C/ A,/C/E/ G/F/E/ | F/D/E/ F/G/A/ B/c/d/ | %54
 c/B/A/ d/c/B/ c/B/A/ | e3/2- e/c/d/ e/f/g/ | a3/2- a/B/c/ d/e/f/ | g3/2- g/A/B/ c/d/e/ | %58
 f3/2 ^G3/2 b3/2- | b/c/e/ a3/2 ^d3/2 | e/E/F/ G/A/B/ c/d/e/ | d3/2 =c'3/2 f3/2 | %62
 g/G/A/ B/c/d/ e/f/g/ | f/e/d/ a3/2[eg]3/2- | [eg]3/2 f3/2 z3/2 | f3/2 g z/ z3/2 | g3/2 f z/ z3/2 | %67
 d3/2 c3/2 e3/2- | e3/2 d3/2 ^g3/2 | a3/2 c3/2 ^d3/2 | ^d3/2 e3/2 ^a3/2 | b3/2 ^d3/2 ^e3/2 | %72
 f3/2 a3/2 a3/2 | a3/2 z3/2 z3/2 | g/f/e/ g3/2 g3/2 | g3/2 z3/2 z3/2 | f/d/B/ B/^A/B/ c/d/e/ | %77
 d/B/G/ G/F/G/ A/B/=c/ | B/G/e/- e/^d/e/ f/g/a/ | g3- g3/2- | g/ z z3/2 z3/2 | %81
 A,/D/F/ A/d/f/ d/A/F/ | D/[I:staff +1]B,/[I:staff -1]D/ ^G/B/d/ ^g/b/g/ | %83
 a/e/c/ A/E/C/[I:staff +1] A,/[I:staff -1]C/E/ | A/c/e/ g3/2 z3/2 | f/e/f/ B3/2- B/c/d/ | %86
 e/d/e/ A3/2- A/B/c/ | d/B/^G/ E/G/B/ d/c/B/ | c3/2- [Ac]3/2 z3/2 | c3/2- [Ac]3/2 z3/2 | %90
 =c3/2- [Ac]3/2 z3/2 | =c3/2- [Ac]3/2 z3/2 | z/ F/^G/ A/B/=c/- c/B/A/ | ^G/A/B/ E/G/B/- [Be-]3/2 | %94
 e/d/c/ B/c/A/ E/A/^G/ |[I:staff +1] A,,/C,/E,/ A,/C/[I:staff -1]E/ A3/2 | z9/2 | z9/2 | z9/2 | %99
 z9/2 | z9/2 | z9/2 | F/G/A/ B,/A/G/ F/G/A/ | =C/A/G/ F/G/A/ D/E/F/ | G/B/d/ c/B/A/ G/F/E/ | %105
 F/A/=c/ B/A/G/ F/E/D/ | E/F/G/ F/E/D/ E/D/C/ | D/A/G/ F/E/D/ =C/B,/A,/ | B,3/2 ^D3/2 A3/2- | %109
 A/B/A/ ^G/F/E/ D/C/B,/ | C3/2 ^E3/2 B3/2- | B3/2 ^A3/2 F3/2 | ^G/e/d/ c/d/e/ ^A/B/c/ | %113
 d/f/a/ ^g/f/e/ d/c/B/ | c/e/g/ f/e/d/ =c/B/A/ | B/=c/d/ c/B/A/ B/A/G/ | A/B/=c/ B/A/G/ A/G/F/ | %117
 G/b/a/ g/f/e/ d/c/B/ | c/d/e/ d/e/f/ e/f/g/ | f/a/g/ f/e/d/ =c/B/^A/ | B/c/d/ c/d/e/ d/e/f/ | %121
 e3/2 c3/2 g3/2 | f3/2 e3 | f3/2 b3- | b3/2 a3/2 g3/2 | f3- f3/2- | f3/2- f/f/e/ d/c/B/ | %127
 e3- e3/2- | e3/2- e/e/d/ c/B/A/ | d3- d3/2- | d>dd/c/ B/A/^G/ | c/B/A/ d3 | %132
 e/f/e/ d/B/=c/- c=c'/ | b/a/b/ e3/2- e/f/g/ | a/g/a/ d3/2- d/e/f/ | g/e/c/ A/c/e/ g/f/e/ | %136
 f3/2- f3/2 z3/2 | f3/2- f3/2 z3/2 | =f3/2- f3/2 z3/2 | =f3/2- f3/2 z3/2 | %140
 z/ B/c/ d/e/=f/- f/e/d/ | c/d/e/ A/c/e-<[ea-] | a/g/f/ e/f/d/ A/d/c/ | %143
 d/A/F/ D/[I:staff +1]A,/F,/ D,3/2 |[I:staff -1] z9/2 | z9/2 | z9/2 | z9/2 | z9/2 | z9/2 | %150
 F/G/A/ B,/A/G/ F/G/A/ | =C/A/G/ F/G/A/ D/E/F/ | G/B/d/ c/B/A/ G/F/E/ | F/A/=c/ B/A/G/ F/E/D/ | %154
 E/F/G/ F/E/D/ E/D/C/ | D/A/G/ F/E/D/ =C/B,/A,/ | B,3/2 ^D3/2 A3/2- | A/B/A/ ^G/F/E/ D/C/B,/ | %158
 C3/2 ^E3/2 B3/2- | B3/2 ^A3/2 F3/2 | ^G/e/d/ c/d/e/ ^A/B/c/ | d/f/a/ ^g/f/e/ d/c/B/ | %162
 c/e/g/ f/e/d/ =c/B/A/ | B/=c/d/ c/B/A/ B/A/G/ | A/B/=c/ B/A/G/ A/G/F/ | G/b/a/ g/f/e/ d/c/B/ | %166
 c/d/e/ d/e/f/ e/f/g/ | f/a/g/ f/e/d/ =c/B/^A/ | B/c/d/ c/d/e/ d/e/f/ | e3/2 c3/2 g3/2 | f3/2 e3 | %171
 f3/2 b3- | b3/2 a3/2 g3/2 | f3- f3/2- | f3/2- f/f/e/ d/c/B/ | e3- e3/2- | e3/2- e/-e/d/ c/B/A/ | %177
 d3- d3/2- | d>dd/c/ B/A/^G/ | c/B/A/ d3 | e/f/e/ d/B/=c/- c=c'/ | b/a/b/ e3/2- e/f/g/ | %182
 a/g/a/ d3/2- d/e/f/ | g/e/c/ A/c/e/ g/f/e/ | f3/2- f3/2 z3/2 | f3/2- f3/2 z3/2 | %186
 =f3/2- f3/2 z3/2 | =f3/2- f3/2 z3/2 | z/ B/c/ d/e/=f/- f/e/d/ | c/d/e/ A/c/e-<[ea-] | %190
 a/g/f/ e/f/d/ A/d/c/ | d/A/F/ D/[I:staff +1]A,/F,/ !fermata!D,3/2 |] %192
V:2
 z9/2 | z9/2 | z9/2 | z9/2 | z9/2 | z9/2 | A,3/2- A,/[I:staff -1]C/E/ A/E/C/ | %7
[I:staff +1] A,/C/E/ G3/2 z3/2 | F/E/F/ B,3/2- B,/C/D/ | E/D/E/ A,3/2- A,/B,/C/ | %10
 D/B,/^G,/ E,/G,/B,/ D/C/B,/ | C/A,/B,/ C/^D/E/ F/G/A/ | G3/2 E3/2 ^A,3/2 | %13
 B,/C/D/ E/F/G/ A/B/=c/ | B3/2 G3/2 C3/2 | D,3/2- D,/F,/A,/ D/A,/F,/ | D,/F,/A,/ =C3/2 z3/2 | %17
 B,/A,/B,/ E,3/2- E,/F,/G,/ | A,/G,/A,/ D,3/2- D,/E,/F,/ | G,/E,/C,/ A,,/C,/E,/ G,/F,/E,/ | %20
 F,/D,/E,/ F,/G,/A,/ B,/C/D/ | C/B,/A,/ B,/A,/G,/ A,/G,/F,/ | G,/E,/F,/ G,/A,/B,/ C/D/E/ | %23
 D/C/B,/ C/B,/A,/ B,/A,/^G,/ | A,/^G,/F,/- F,/A,/C/ E/^D/C/ | ^D3/2 z3/2 z3/2 | %26
 E,3/2- E,/G,/B,/ D/C/B,/ | C3/2 z3/2 z3/2 | D,3/2 D3/2 C3/2 | B,,3/2 B,3/2 A,3/2 | %30
 G,,3/2[G,B,]3/2[F,A,]3/2 | E,3/2[EG]3/2[DF]3/2 | E3/2 z3/2 z3/2 | A,3/2 z3/2 z3/2 | %34
 z/ B, z3/2 z3/2 | z3/2 z3/2 A,3/2 | z3/2 z/ A,,/C,/ E,/A,/C/ | D,3/2 z/ ^G,,/B,,/ D,/F,/B,/ | %38
 C,3/2 z/ F,,/A,,/ C,/E,/A,/ | B,,3/2 z/ E,,/^G,,/ B,,/E,/^G,/ | A,,3/2- A,,/C,/E,/ A,/E,/C,/ | %41
 ^G,,3/2- G,,/C,/E,/ A,/E,/C,/ | F,,3/2- F,,/A,,/B,,/ =C,/B,,/A,,/ | %43
 E,,3/2- E,,/A,,/B,,/ =C,/B,,/A,,/ | ^D,,3/2 ^D,3/2 D,,3/2 | D,,3/2- D,,/E,,/F,,/ ^G,,/A,,/B,,/ | %46
 C,,3/2 D,,3/2 E,,3/2 | A,,3- A,,3/2 | z9/2 | z9/2 | z9/2 | z9/2 | z9/2 | z9/2 | %54
 A,3/2- A,/[I:staff -1]C/E/ A/E/C/ |[I:staff +1] A,/C/E/ G3/2 z3/2 | F/E/F/ B,3/2- B,/C/D/ | %57
 E/D/E/ A,3/2- A,/B,/C/ | D/B,/^G,/ E,/G,/B,/ D/C/B,/ | C/A,/B,/ C/^D/E/ F/G/A/ | %60
 G3/2 E3/2 ^A,3/2 | B,/C/D/ E/F/G/ A/B/=c/ | B3/2 G3/2 C3/2 | D,3/2- D,/F,/A,/ D/A,/F,/ | %64
 D,/F,/A,/ =C3/2 z3/2 | B,/A,/B,/ E,3/2- E,/F,/G,/ | A,/G,/A,/ D,3/2- D,/E,/F,/ | %67
 G,/E,/C,/ A,,/C,/E,/ G,/F,/E,/ | F,/D,/E,/ F,/G,/A,/ B,/C/D/ | C/B,/A,/ B,/A,/G,/ A,/G,/F,/ | %70
 G,/E,/F,/ G,/A,/B,/ C/D/E/ | D/C/B,/ C/B,/A,/ B,/A,/^G,/ | A,/^G,/F,/- F,/A,/C/ E/^D/C/ | %73
 ^D3/2 z3/2 z3/2 | E,3/2- E,/G,/B,/ D/C/B,/ | C3/2 z3/2 z3/2 | D,3/2 D3/2 C3/2 | %77
 B,,3/2 B,3/2 A,3/2 | G,,3/2[G,B,]3/2[F,A,]3/2 | E,3/2[EG]3/2[DF]3/2 | E3/2 z3/2 z3/2 | %81
 A,3/2 z3/2 z3/2 | z/ B, z3/2 z3/2 | z3/2 z3/2 A,3/2 | z3/2 z/ A,,/C,/ E,/A,/C/ | %85
 D,3/2 z/ ^G,,/B,,/ D,/F,/B,/ | C,3/2 z/ F,,/A,,/ C,/E,/A,/ | B,,3/2 z/ E,,/^G,,/ B,,/E,/^G,/ | %88
 A,,3/2- A,,/C,/E,/ A,/E,/C,/ | ^G,,3/2- G,,/C,/E,/ A,/E,/C,/ | F,,3/2- F,,/A,,/B,,/ =C,/B,,/A,,/ | %91
 E,,3/2- E,,/A,,/B,,/ =C,/B,,/A,,/ | ^D,,3/2 ^D,3/2 D,,3/2 | D,,3/2- D,,/E,,/F,,/ ^G,,/A,,/B,,/ | %94
 C,,3/2 D,,3/2 E,,3/2 | A,,3- A,,3/2 | C/D/E/ F,/E/D/ C/D/E/ | G,/E/D/ C/D/E/ A,/B,/C/ | %98
 D/F/A/ ^G/F/E/ D/C/B,/ | C/E/G/ F/E/D/ C/B,/A,/ | B,/C/D/ C/B,/A,/ B,/A,/^G,/ | %101
 A,/E/D/ C/B,/A,/ G,/F,/E,/ | D,3/2- D,/F,/A,/ D/ A,/F,/ | D,/F,/A,/ =C3/2 z3/2 | %104
 B,/A,/B,/ E,3/2- E,/F,/G,/ | A,/G,/A,/ D,3/2- D,/E,/F,/ | G,/E,/C,/ A,,/C,/E,/ G,/F,/E,/ | %107
 F,3/2 A,3/2 D,3/2 | G,/D/=C/ B,/A,/G,/ F,/E,/^D,/ | E,3/2 B,,3/2 ^G,3/2 | %110
 A,/E/D/ C/B,/A,/ ^G,/F,/=F,/ | F,3/2 z3/2 ^A,3/2 | B,3/2 E,3/2 F,3/2 | B,,3/2 E,3/2 z3/2 | %114
 A,,3/2 D,3/2 z3/2 | G,,3/2 E,3/2 D,3/2 | C,3/2 ^D,3/2 B,,3/2 | E,,3/2 z3/2 G,3/2- | %118
 G,3/2F,3/2C,3/2 | D,3/2 A,3/2 D3/2 | G,3 z3/2 | C,/D,/E,/ F,,/E,/D,/ C,/D,/E,/ | %122
 ^G,,/E,/D,/ C,/D,/E,/ ^A,,/B,,/C,/ | D,/F,/A,/ ^G,/F,/E,/ D,/C,/B,,/ | %124
 C,/E,/G,/ F,/E,/D,/ C,/B,,/A,,/ | D,3/2 D3/2 B,3/2 | ^G,/A,/B,/- B,/A,/G,/ F,/E,/D,/ | %127
 C,3/2 C3/2 A,3/2 | F,/^G,/A,/- A,/G,/F,/ E,/D,/C,/ | B,,3/2 B,3/2 ^G,3/2 | %130
 E,/F,/^G,/- G,/F,/E,/ D,/C,/B,,/ | A,,/B,,/C,/ B,,/A,/G,/ F,/G,/A,/ | %132
 C,/A,/G,/ F,/G,/A,/ D,/E,/F,/ | G,/B,/D/ C/B,/A,/ G,/F,/E,/ | F,/A,/=C/ B,/A,/G,/ F,/E,/D,/ | %135
 E,/F,/G,/ F,/E,/D,/ E,/D,/C,/ | D,3/2- D,/F,/A,/ D/A,/F,/ | C,3/2- C,/F,/A,/ D/A,/F,/ | %138
 B,,3/2- B,,/D,/E,/ =F,/E,/D,/ | A,,3/2- A,,/C,/E,/ =F,/E,/C,/ | ^G,,3/2 ^G,3/2 G,,3/2 | %141
 G,,3/2- G,,/A,,/B,,/ C,/D,/E,/ | F,,3/2 G,,3/2 A,,3/2 | D,,3 D,3/2 | C/D/E/ F,/E/D/ C/D/E/ | %145
 G,/E/D/ C/D/E/ A,/B,/C/ |[I:staff -1] D/F/A/ ^G/F/E/ D/C/B,/ | %147
 C/E/G/ F/E/D/[I:staff +1] C/B,/A,/ | B,/C/D/ C/B,/A,/ B,/A,/^G,/ | A,/E/D/ C/B,/A,/ G,/F,/E,/ | %150
 D,3/2- D,/F,/A,/ D/ A,/F,/ | D,/F,/A,/ =C3/2 z3/2 | B,/A,/B,/ E,3/2- E,/F,/G,/ | %153
 A,/G,/A,/ D,3/2- D,/E,/F,/ | G,/E,/C,/ A,,/C,/E,/ G,/F,/E,/ | F,3/2 A,3/2 D,3/2 | %156
 G,/D/=C/ B,/A,/G,/ F,/E,/^D,/ | E,3/2 B,,3/2 ^G,3/2 | A,/E/D/ C/B,/A,/ ^G,/F,/=F,/ | %159
 F,3/2 z3/2 ^A,3/2 | B,3/2 E,3/2 F,3/2 | B,,3/2 E,3/2 z3/2 | A,,3/2 E,3/2 z3/2 | %163
 C,3/2 ^D,3/2 B,,3/2 | C,3/2 ^D,3/2 B,,3/2 | E,,3/2 z3/2 G,3/2- | G,3/2 F,3/2 C,3/2 | %167
 D,3/2 A,3/2 D3/2 | G,3 z3/2 | C,/D,/E,/ F,,/E,/D,/ C,/D,/E,/ | %170
 ^G,,/E,/D,/ C,/D,/E,/ ^A,,/B,,/C,/ | D,/F,/A,/ ^G,/F,/E,/ D,/C,/B,,/ | %172
 C,/E,/G,/ F,/E,/D,/ C,/B,,/A,,/ | D,3/2 D3/2 B,3/2 | ^G,/A,/B,/- B,/A,/G,/ F,/E,/D,/ | %175
 C,3/2 C3/2 A,3/2 | F,/^G,/A,/- A,/G,/F,/ E,/D,/C,/ | B,,3/2 B,3/2 ^G,3/2 | %178
 E,/F,/^G,/- G,/F,/E,/ D,/C,/B,,/ | A,,/B,,/C,/ B,,/A,/G,/ F,/G,/A,/ | %180
 C,/A,/G,/ F,/G,/A,/ D,/E,/F,/ | G,/B,/D/ C/B,/A,/ G,/F,/E,/ | F,/A,/=C/ B,/A,/G,/ F,/E,/D,/ | %183
 E,/F,/G,/ F,/E,/D,/ E,/D,/C,/ | D,3/2- D,/F,/A,/ D/A,/F,/ | C,3/2- C,/F,/A,/ D/A,/F,/ | %186
 B,,3/2- B,,/D,/E,/ =F,/E,/D,/ | A,,3/2- A,,/C,/E,/ =F,/E,/C,/ | ^G,,3/2 ^G,3/2 G,,3/2 | %189
 G,,3/2- G,,/A,,/B,,/ C,/D,/E,/ | F,,3/2 G,,3/2 A,,3/2 | D,,3 !fermata!D,3/2 |] %192
V:3
 x9/2 | x9/2 | x9/2 | x9/2 | x9/2 | x9/2 | x9/2 | x9/2 | x9/2 | x9/2 | x9/2 | x9/2 | x9/2 | x9/2 | %14
 x9/2 | D3/2 z3/2 c3/2- | c3/2 d/F/G/ A/B/=c/ | d3/2- d/F/G/ A/B/c/ | c3/2- c/D/E/ F/G/A/ | %19
 B3/2 z3/2 c3/2 | A3/2 z3/2 d3/2 | e3/2 E3/2 F3/2 | B3 e3/2 | f3/2 F3/2 ^G3/2 | c3/2 f3/2 f3/2 | %25
 f/F/G/ A/B/c/ ^d/e/f/ | z3/2 e3/2e3/2 | e/E/F/ G/A/B/ c/d/e/ | z3/2 F3/2 E3/2 | z3/2 D3/2 =C3/2 | %30
 z3/2 E3/2 ^D3/2 | g/e/c/ c/B/c/ d/c/B/ | A/c/e/ g/e/c/ A/E/C/ | x9/2 | x9/2 | x9/2 | x9/2 | x9/2 | %38
 x9/2 | x9/2 | c/^G/A/ E3/2 z3/2 | c/^G/A/ E3/2 z3/2 | =c/^G/A/ ^D3/2 z3/2 | =c/^G/A/ E3/2 z3/2 | %44
 x9/2 | z3/2 E3/2- E3/2 | x9/2 | x9/2 | x9/2 | x9/2 | x9/2 | x9/2 | x9/2 | x9/2 | x9/2 | x9/2 | %56
 x9/2 | x9/2 | x9/2 | x9/2 | x9/2 | x9/2 | x9/2 | D3/2 z3/2 c3/2- | c3/2 d/F/G/ A/B/=c/ | %65
 d3/2- d/F/G/ A/B/c/ | c3/2- c/D/E/ F/G/A/ | B3/2 z3/2 c3/2 | A3/2 z3/2 d3/2 | e3/2 E3/2 F3/2 | %70
 B3 e3/2 | f3/2 F3/2 ^G3/2 | c3/2 f3/2 f3/2 | f/F/G/ A/B/c/ ^d/e/f/ | z3/2 e3/2e3/2 | %75
 e/E/F/ G/A/B/ c/d/e/ | z3/2 F3/2 E3/2 | z3/2 D3/2 =C3/2 | z3/2 E3/2 ^D3/2 | g/e/c/ c/B/c/ d/c/B/ | %80
 A/c/e/ g/e/c/ A/E/C/ | x9/2 | x9/2 | x9/2 | x9/2 | x9/2 | x9/2 | x9/2 | c/^G/A/ E3/2 z3/2 | %89
 c/^G/A/ E3/2 z3/2 | =c/^G/A/ ^D3/2 z3/2 | =c/^G/A/ E3/2 z3/2 | x9/2 | z3/2 E3/2- E3/2 | x9/2 | %95
 x9/2 | x9/2 | x9/2 | x9/2 | x9/2 | x9/2 | x9/2 | x9/2 | x9/2 | x9/2 | x9/2 | x9/2 | x9/2 | x9/2 | %109
 x9/2 | x9/2 | c/d/e/ F/e/d/ c/d/e/ | D3/2 E3/2 C3/2 | B,3/2- B,/C/D/ E/F/^G/ | %114
 A3/2- A/B,/=C/ D/E/F/ | G3/2[I:staff +1] G,3- | G,3/2 F,3/2 ^D,3/2 | E,3/2 B,3/2 E3/2 | %118
 A,3- A,3/2- | A,3/2[I:staff -1] z3/2 F3/2- | F3/2 E3/2 B3/2- | B3/2 ^A3/2 e3/2 | d3 c3/2 | %123
 B3 ^g3/2 | e3/2 z3/2 e3/2- | e/F/G/ A/B/c/ d/e/f/ | B/c/d/ G3- | G/E/F/ ^G/A/B/ c/d/e/ | %128
 A/B/c/ F3- | F/D/E/ F/^G/A/ B/c/d/ | ^G/A/B/ E3- | E3/2 z/ c/B/ A/B/G/- | G3 F z/ | x9/2 | x9/2 | %135
 x9/2 | f/c/d/- d3/2 z3/2 | f/c/d/- d3/2 z3/2 | =f/c/d/- d3/2 z3/2 | =f/c/d/- d3/2 z3/2 | x9/2 | %141
 z3/2 A3/2- A3/2 | x9/2 | x9/2 | x9/2 | x9/2 | x9/2 | x9/2 | x9/2 | x9/2 | x9/2 | x9/2 | x9/2 | %153
 x9/2 | x9/2 | x9/2 | x9/2 | x9/2 | x9/2 | c/d/e/ F/e/d/ c/d/e/ | D3/2 E3/2 C3/2 | %161
 B,3/2- B,/C/D/ E/F/^G/ | A3/2- A/B,/=C/ D/E/F/ | G3/2[I:staff +1] G,3- | G,3/2 F,3/2 ^D,3/2 | %165
 E,3/2 B,3/2 E3/2 | A,3- A,3/2- | A,3/2[I:staff -1] z3/2 F3/2- | F3/2 E3/2 B3/2- | %169
 B3/2 ^A3/2 e3/2 | d3 c3/2 | B3 ^g3/2 | e3/2 z3/2 e3/2- | e/F/G/ A/B/c/ d/e/f/ | B/c/d/ G3- | %175
 G/E/F/ ^G/A/B/ c/d/e/ | A/B/c/ F3- | F/D/E/ F/^G/A/ B/c/d/ | ^G/A/B/ E3- | E3/2 z/ c/B/ A/B/G/- | %180
 G3 F z/ | x9/2 | x9/2 | x9/2 | f/c/d/- d3/2 z3/2 | f/c/d/- d3/2 z3/2 | =f/c/d/- d3/2 z3/2 | %187
 =f/c/d/- d3/2 z3/2 | x9/2 | z3/2 A3/2- A3/2 | x9/2 | x9/2 |] %192
V:4
 x9/2 | x9/2 | x9/2 | x9/2 | x9/2 | x9/2 | x9/2 | x9/2 | x9/2 | x9/2 | x9/2 | x9/2 | x9/2 | x9/2 | %14
 x9/2 | x9/2 | x9/2 | x9/2 | x9/2 | x9/2 | x9/2 | x9/2 | x9/2 | x9/2 | x9/2 | x9/2 | x9/2 | x9/2 | %28
 x9/2 | x9/2 | x9/2 | x9/2 | C3/2 z3/2 z3/2 | x9/2 | x9/2 | x9/2 | x9/2 | x9/2 | x9/2 | x9/2 | %40
 x9/2 | x9/2 | x9/2 | x9/2 | x9/2 | x9/2 | x9/2 | x9/2 | x9/2 | x9/2 | x9/2 | x9/2 | x9/2 | x9/2 | %54
 x9/2 | x9/2 | x9/2 | x9/2 | x9/2 | x9/2 | x9/2 | x9/2 | x9/2 | x9/2 | x9/2 | x9/2 | x9/2 | x9/2 | %68
 x9/2 | x9/2 | x9/2 | x9/2 | x9/2 | x9/2 | x9/2 | x9/2 | x9/2 | x9/2 | x9/2 | x9/2 | %80
 C3/2 z3/2 z3/2 | x9/2 | x9/2 | x9/2 | x9/2 | x9/2 | x9/2 | x9/2 | x9/2 | x9/2 | x9/2 | x9/2 | %92
 x9/2 | x9/2 | x9/2 | x9/2 | x9/2 | x9/2 | x9/2 | x9/2 | x9/2 | x9/2 | x9/2 | x9/2 | x9/2 | x9/2 | %106
 x9/2 | x9/2 | x9/2 | x9/2 | x9/2 | x9/2 | x9/2 | x9/2 | x9/2 | x9/2 | x9/2 | x9/2 | x9/2 | x9/2 | %120
 x9/2 | x9/2 | x9/2 | x9/2 | x9/2 | x9/2 | x9/2 | x9/2 | x9/2 | x9/2 | x9/2 | x9/2 | x9/2 | x9/2 | %134
 x9/2 | x9/2 | x9/2 | x9/2 | x9/2 | x9/2 | x9/2 | x9/2 | x9/2 | x9/2 | x9/2 | x9/2 | x9/2 | x9/2 | %148
 x9/2 | x9/2 | x9/2 | x9/2 | x9/2 | x9/2 | x9/2 | x9/2 | x9/2 | x9/2 | x9/2 | x9/2 | x9/2 | x9/2 | %162
 x9/2 | x9/2 | x9/2 | x9/2 | x9/2 | x9/2 | x9/2 | x9/2 | x9/2 | x9/2 | x9/2 | x9/2 | x9/2 | x9/2 | %176
 x9/2 | x9/2 | x9/2 | x9/2 | x9/2 | x9/2 | x9/2 | x9/2 | x9/2 | x9/2 | x9/2 | x9/2 | x9/2 | x9/2 | %190
 x9/2 | x9/2 |] %192
V:5
 x9/2 | x9/2 | x9/2 | x9/2 | x9/2 | x9/2 | x9/2 | x9/2 | x9/2 | x9/2 | x9/2 | x9/2 | x9/2 | x9/2 | %14
 x9/2 | x9/2 | x9/2 | x9/2 | x9/2 | x9/2 | x9/2 | x9/2 | x9/2 | x9/2 | x9/2 | x9/2 | x9/2 | x9/2 | %28
 x9/2 | x9/2 | x9/2 | x9/2 | x9/2 | x9/2 | x9/2 | x9/2 | x9/2 | x9/2 | x9/2 | x9/2 | x9/2 | x9/2 | %42
 x9/2 | x9/2 | x9/2 | z3/2 z/ ^G- G3/2 | x9/2 | x9/2 | x9/2 | x9/2 | x9/2 | x9/2 | x9/2 | x9/2 | %54
 x9/2 | x9/2 | x9/2 | x9/2 | x9/2 | x9/2 | x9/2 | x9/2 | x9/2 | x9/2 | x9/2 | x9/2 | x9/2 | x9/2 | %68
 x9/2 | x9/2 | x9/2 | x9/2 | x9/2 | x9/2 | x9/2 | x9/2 | x9/2 | x9/2 | x9/2 | x9/2 | x9/2 | x9/2 | %82
 x9/2 | x9/2 | x9/2 | x9/2 | x9/2 | x9/2 | x9/2 | x9/2 | x9/2 | x9/2 | x9/2 | z3/2 z/ ^G- G3/2 | %94
 x9/2 | x9/2 | x9/2 | x9/2 | x9/2 | x9/2 | x9/2 | x9/2 | x9/2 | x9/2 | x9/2 | x9/2 | x9/2 | x9/2 | %108
 x9/2 | x9/2 | x9/2 | x9/2 | x9/2 | x9/2 | x9/2 | x9/2 | x9/2 | x9/2 | x9/2 | x9/2 | x9/2 | x9/2 | %122
 x9/2 | x9/2 | x9/2 | x9/2 | x9/2 | x9/2 | x9/2 | x9/2 | x9/2 | x9/2 | x9/2 | x9/2 | x9/2 | x9/2 | %136
 z3/2 A3/2 z3/2 | z3/2 A3/2 z3/2 | z3/2 ^G3/2 z3/2 | z3/2 A3/2 z3/2 | x9/2 | z3/2 z/ c- c3/2 | %142
 x9/2 | x9/2 | x9/2 | x9/2 | x9/2 | x9/2 | x9/2 | x9/2 | x9/2 | x9/2 | x9/2 | x9/2 | x9/2 | x9/2 | %156
 x9/2 | x9/2 | x9/2 | x9/2 | x9/2 | x9/2 | x9/2 | x9/2 | x9/2 | x9/2 | x9/2 | x9/2 | x9/2 | x9/2 | %170
 x9/2 | x9/2 | x9/2 | x9/2 | x9/2 | x9/2 | x9/2 | x9/2 | x9/2 | x9/2 | x9/2 | x9/2 | x9/2 | x9/2 | %184
 z3/2 A3/2 z3/2 | z3/2 A3/2 z3/2 | z3/2 ^G3/2 z3/2 | z3/2 A3/2 z3/2 | x9/2 | z3/2 z/ c- c3/2 | %190
 x9/2 | x9/2 |] %192

